src/images/clock-icon.svg

<svg fill="none" version="1.1" viewBox="0 0 16 16" width="16" height="16" xmlns="http://www.w3.org/2000/svg">
 <g clip-path="url(#clip0_10_1095)" fill="currentColor">
  <path d="m10.85 9.4128-2.2308-1.6731v-3.4082c0-0.34269-0.277-0.61969-0.61969-0.61969s-0.61969 0.277-0.61969 0.61969v3.7181c0 0.19519 0.09172 0.37925 0.24787 0.49575l2.4786 1.8591c0.1116 0.0836 0.2417 0.1239 0.3712 0.1239 0.189 0 0.3749-0.0849 0.4964-0.2485 0.2058-0.2733 0.15-0.66184-0.1239-0.86696z"/>
  <path d="m8 0c-4.4115 0-8 3.5885-8 8 0 4.4115 3.5885 8 8 8 4.4115 0 8-3.5885 8-8 0-4.4115-3.5885-8-8-8zm0 14.761c-3.7273 0-6.7607-3.0334-6.7607-6.7607 0-3.7273 3.0333-6.7607 6.7607-6.7607 3.728 0 6.7607 3.0333 6.7607 6.7607 0 3.7273-3.0334 6.7607-6.7607 6.7607z"/>
 </g>
</svg>

<svg width="16" height="16" viewBox="0 0 16 16" fill="none" xmlns="http://www.w3.org/2000/svg">
<g clip-path="url(#clip0_10_1095)">
<path d="M10.8505 9.41284L8.61966 7.73971V4.33153C8.61966 3.98884 8.34266 3.71184 7.99997 3.71184C7.65728 3.71184 7.38028 3.98884 7.38028 4.33153V8.04959C7.38028 8.24478 7.472 8.42884 7.62815 8.54534L10.1068 10.4044C10.2184 10.488 10.3485 10.5283 10.478 10.5283C10.667 10.5283 10.8529 10.4434 10.9744 10.2798C11.1802 10.0065 11.1244 9.61796 10.8505 9.41284Z" fill="currentColor"/>
<path d="M8 0C3.58853 0 0 3.58853 0 8C0 12.4115 3.58853 16 8 16C12.4115 16 16 12.4115 16 8C16 3.58853 12.4115 0 8 0ZM8 14.7607C4.27266 14.7607 1.23934 11.7273 1.23934 8C1.23934 4.27266 4.27266 1.23934 8 1.23934C11.728 1.23934 14.7607 4.27266 14.7607 8C14.7607 11.7273 11.7273 14.7607 8 14.7607Z" fill="currentColor"/>
</g>
<defs>
<clipPath id="clip0_10_1095">
<rect width="16" height="16" fill="white"/>
</clipPath>
</defs>
</svg>
